X: 42798
T: Whitestrand Sling
R: reel
M: 4/4
K: Bdorian
|:fB (3BBB fBgB|fBgB fded|cF (3FFF cFdF|cF (3FFF cedc|fB (3BBB fBgB|
fBgB fded|1 cF (3FFF cFdF|ecAc BGAc:|2 dGBd cFAc|BEGB ADFA|

